X: 28940
T: Nan's
R: jig
M: 6/8
K: Dmajor
Add ddA|BBB dde|fdd aad|faf e2f|
Add ddA|BBB dde|f2d Aaf|edd d2f:|
|:aff f2a|faf d2e|faa Aaa|faf e2f|
aff f2a|faf d2e|f2d Aaf|edd d2f:|
|:Adf edB|Add d2e|fed efd|BAA A2f|
Adf edB|Add d2e|f2d Aaf|1 edd d2f:|2 edd d2A||
|:faa a2f|edd d2B|ABd ede|faf e2[Af]|
[1 faa a2f|edd d2e|f2d Aaf|edd d2A:|
[2 Adf edB|Add d2e|f2d Aaf|edd d2||

